static/projects/apps/4-user-interface/color/illu-book.svg

<svg xmlns="http://www.w3.org/2000/svg" viewBox="0 0 136 136" enable-background="new 0 0 136 136"><style type="text/css">.st0{fill:#EC82BE;} .st1{fill:#FFFFFF;} .st2{fill:#F6B344;} .st3{fill:#1FB28C;} .st4{fill:#66C980;} .st5{fill:#DE4658;} .st6{fill:#00B0DC;} .st7{fill:#383838;} .st8{fill:#848484;} .st9{fill:#A8A8A8;} .st10{fill:#B865C7;} .st11{fill:#00B9D1;}</style><circle cx="68" cy="68" r="68" class="st10"/><path d="M69.8 47.4h-4c-1.1 0-1.6.7-1.6 1.8v5.2h-4v-5.3c0-1.1-1.3-1.8-2.4-1.8h-4c-1.1 0-1.6.7-1.6 1.8v2.2h-4.4c-1.1 0-1.6.7-1.6 1.8v33.2c0 1.1.5 2.2 1.6 2.2h4c.4 0 .7-.1 1-.3.3.2.6.3 1 .3h4c.4 0 .7-.1 1-.3.3.2.6.3 1 .3h4c.4 0 .7-.1 1-.3.3.2.6.3 1 .3h4c1.1 0 2.4-1.1 2.4-2.2V49.2c0-1.2-1.3-1.8-2.4-1.8zM58.1 66.3v16.3h-4V55.4h4v10.9zm6-3.8v2h-4v-2h4zm0-6.1v4h-4v-4h4zm-10-7h4v4h-4v-4zm-6.1 4h4v4h-4v-4zm0 6h4v2h-4v-2zm0 27.2V63.5h4V86.6h-4zm6.1 0v-2h4v2h-4zm6 0V66.5h4V86.6h-4zm9.7 0h-3.7v-2h3.7v2zm0-4h-3.7V56.2c0-.1 0-.1 0-.2v-.6h3.7v27.2zm-4.1-29.2v-4h4.1v4h-4.1zM89.9 84.9L79.7 49.4c-.3-1.1-1.4-1.7-2.5-1.4l-3.9 1.1c-1.1.3-1.7 1.4-1.4 2.5l10 35.5c.3 1.1 1.4 1.7 2.5 1.4l4.1-1.1c1.1-.3 1.7-1.4 1.4-2.5zM79.4 55.8l.9 3-4.2 1.2-.8-3 4.1-1.2zm-1.8-5.9l1.2 3.9-4.1 1.2-1.1-4 4-1.1zM83.4 87l-6.8-25.2 4.3-1.2 7.5 24.9-5 1.5z" class="st1"/></svg>

<?xml version="1.0" encoding="utf-8"?>
<!-- Generator: Adobe Illustrator 18.0.0, SVG Export Plug-In . SVG Version: 6.00 Build 0)  -->
<!DOCTYPE svg PUBLIC "-//W3C//DTD SVG 1.1//EN" "http://www.w3.org/Graphics/SVG/1.1/DTD/svg11.dtd">
<svg version="1.1" id="Calque_1" xmlns="http://www.w3.org/2000/svg" xmlns:xlink="http://www.w3.org/1999/xlink" x="0px" y="0px"
	 viewBox="0 0 136 136" style="enable-background:new 0 0 136 136;" xml:space="preserve">
<style type="text/css">
	.st0{fill:#EC82BE;}
	.st1{fill:#FFFFFF;}
	.st2{fill:#F6B344;}
	.st3{fill:#1FB28C;}
	.st4{fill:#66C980;}
	.st5{fill:#DE4658;}
	.st6{fill:#00B0DC;}
	.st7{fill:#383838;}
	.st8{fill:#848484;}
	.st9{fill:#A8A8A8;}
	.st10{fill:#B865C7;}
	.st11{fill:#00B9D1;}
</style>
<g>
	<circle class="st10" cx="68" cy="68" r="68"/>
	<g>
		<path class="st1" d="M69.8,47.4h-4c-1.1,0-1.6,0.7-1.6,1.8v4v1.2h-4v-5.3c0-1.1-1.3-1.8-2.4-1.8h-4c-1.1,0-1.6,0.7-1.6,1.8v2.2
			h-4.4c-1.1,0-1.6,0.7-1.6,1.8v4v2v2v2v23.2c0,1.1,0.5,2.2,1.6,2.2h4c0.4,0,0.7-0.1,1-0.3c0.3,0.2,0.6,0.3,1,0.3h4
			c0.4,0,0.7-0.1,1-0.3c0.3,0.2,0.6,0.3,1,0.3h4c0.4,0,0.7-0.1,1-0.3c0.3,0.2,0.6,0.3,1,0.3h4c1.1,0,2.4-1.1,2.4-2.2v-2v-2V55.2v-2
			v-4C72.2,48,70.9,47.4,69.8,47.4z M58.1,66.3v16.3h-4V55.4h4v0.8v4v2v2V66.3z M64.1,62.5v2h-4v-2H64.1z M64.1,56.4v4h-4v-4H64.1z
			 M54.1,49.4h4v4h-4V49.4z M48,53.4h4v1.8v2.2h-4V53.4z M48,59.4h4v2h-4V59.4z M48,86.6V63.5h4v18.9v2v2.2H48z M54.1,86.6v-2h4v2
			H54.1z M60.1,86.6V66.5h4v15.9v2v2.2H60.1z M69.8,86.6h-3.7v-2h3.7L69.8,86.6z M69.8,82.6h-3.7V56.2c0-0.1,0-0.1,0-0.2v-0.6h3.7
			L69.8,82.6z M65.7,53.4l0-4h4.1h0l0,4H65.7z"/>
		<path class="st1" d="M89.9,84.9L79.7,49.4c-0.3-1.1-1.4-1.7-2.5-1.4l-3.9,1.1c-1.1,0.3-1.7,1.4-1.4,2.5l10,35.5
			c0.3,1.1,1.4,1.7,2.5,1.4l4.1-1.1C89.6,87.1,90.2,86,89.9,84.9z M79.4,55.8l0.9,3l-4.2,1.2l-0.8-3L79.4,55.8z M77.6,49.9l1.2,3.9
			L74.7,55l-1.1-4L77.6,49.9z M83.4,87l-6.8-25.2l4.3-1.2l7.5,24.9L83.4,87z"/>
	</g>
</g>
</svg>
